X: 35267
T: Rose In The Garden, The
R: reel
M: 4/4
K: Amajor
AF|:EFAc d2dB|c2cA BcAF|EFAc d2fd|ecBA FAA2|
EFAc d2dB|c2cA BcAF|EFAc dfaf|ecBA FAA2:|
|:ce2c d2fd|ce2c BAFA|ce2c d2fd|ecBA FAA2|
ceec dffd|ceec BAFA|cefg abaf|ecBA FAA2:|

